remix/Map/sailboat-fill.svg

<svg viewBox="0 0 24 24" fill="currentColor" xmlns="http://www.w3.org/2000/svg"><path d="M3.00003 17.9999H21C21.2762 17.9999 21.5 18.2238 21.5 18.4999C21.5 18.6081 21.4649 18.7134 21.4 18.7999L19.3 21.5999C19.1112 21.8517 18.8148 21.9999 18.5 21.9999H5.50003C5.18527 21.9999 4.88888 21.8517 4.70003 21.5999L2.60003 18.7999C2.43434 18.579 2.47912 18.2656 2.70003 18.0999C2.78658 18.035 2.89184 17.9999 3.00003 17.9999ZM15 2.42531V14.9999C15 15.5522 14.5523 15.9999 14 15.9999H4.04034C3.7642 15.9999 3.54034 15.7761 3.54034 15.4999C3.54034 15.3864 3.57898 15.2762 3.64991 15.1876L14.1096 2.11296C14.2821 1.89733 14.5967 1.86237 14.8124 2.03488C14.931 2.12976 15 2.27342 15 2.42531Z"/></svg>

<svg viewBox="0 0 24 24" xmlns="http://www.w3.org/2000/svg"><path fill="none" d="M0 0h24v24H0Z"/><path d="M3 18h18v0c.27 0 .5.22.5.5 0 .1-.04.21-.1.3l-2.1 2.8v0c-.19.25-.49.4-.8.4h-13v0c-.32 0-.62-.15-.8-.4l-2.1-2.8h0c-.17-.23-.13-.54.1-.7 .08-.07.19-.1.3-.1ZM15 2.42V15v0c0 .55-.45 1-1 1H4.04v0c-.28-.01-.5-.23-.5-.51 0-.12.03-.23.1-.32L14.1 2.09v0c.17-.22.48-.25.7-.08 .11.09.18.23.18.38Z"/></svg>
